X:1
T:Obschon Amor übt
T:Melchior Franck
T:Source : Tricinia nova---Nürnberg---A.Wagenmann---1611. Editor : André Vierendeels (16/04/17).
T:Notes : Original clefs : G2, G2, F3 Text Middle German
T:Obschon Amor übt
T:©
T:©
T:©
T:©
T:©
C:Melchior Franck
Z:©
%%score [ 1 2 3 ]
L:1/8
Q:1/4=120
M:2/2
K:C
V:1 treble nm="Soprano 1" snm="S 1"
V:2 treble nm="Soprano 2" snm="S 2"
V:3 treble-8 nm="Tenor" snm="T"
V:1
"^1)" e8 | ^f4 g4- | g4 e4 | ^f4 g4- | g2 f2 e2 d2 | c4 A4 | A8- | A8 | z4 d4 | e6 de | f8 | %11
w: Ob-|schon A-|* mor|übt sei-||* ne|tück,|_|gegn|mir, _ _|_|
w: Ich|mei- ne|_ zwar|ohn un-||* ter|lasz,|_|und|hab _ _|_|
 e4 e4 | A4 d4- | d4 c4 | B4 B4 | ^c4 e4 | g4 d2 f2- | f2 a2 e4 | d8 | e8 | ^f4 g4- | g4 e4 | %22
w: und lest|mich gar|_ _|* kein|glück, kein|lust noch freud|_ er- le-|ben,|so|freut mich|_ doch|
w: stets mei-|ne au-||* gen|nasz, dasz|was- ser drausz|_ thut rin-|nen,|vil|tau- zent|_ seuff-|
 ^f4 g4- | g2 f2 e2 d2 | c4 A4 | A8- | A8 | z4 d4 | e6 de | f8 | e4 e4 | A4 d4- | d4 c4 | B4 B4 | %34
w: im Hert-||* zen|mein,|_|dasz|die _ _|_|lieb, so|mich gnom-||* men|
w: tzer tieff|_ _ _ _|* und|schwer,|_|so|ihm _ _|_|nem Hert-|zen kom-||* men|
 ^c4 e4 | g4 d2 f2- | f2 a2 e4 | d8 |: z2 d2 d2 d2 | e2 g2 c2 f2 | e4 a4- | a2 a2 a2 g2- | %42
w: ein, ob|sie schon ist|_ ver- ge-|ben,|den- noch war|glegt an sol- ches|ort, da|_ es mich nicht|
w: her, angst|und noth ist|_ dar- in-|nen:|Noch lasz ichs|mich nicht fech- ten|an, es|_ lest mich nicht|
 g2 f4 e2 | f4 z2 c2 | c2 c2 d2 d2 | e2 e2 f2 g2 | a2 g4 f2- | f2 e2 d4 | e4 z2 e2 | e2 e2 f4- | %50
w: _ soll reu-|en, eh|ich ab- liek, ich|führ eh fort, und|thätt die lieb|_ ver- neu-|en, all|noth und pein|
w: _ ung- schlaf-|fen, all|pein und schmer- zen|die ich han, gebn|mir we- nig|_ zu schaf-|fen, ick|kan nicht ba-|
 f2 e2 d2 d2 | ^c4 z2 c2 | c2 c2 d4- | d2 c2 _B2 B2 | A4 z2 a2 | a3 g f2 f2 | e4 d2 c2 | %57
w: _ ist mir ein|schertz, er-|frischt mir nur|_ mein gmüth und|hertz, drumb|trau- ren ich ein|stel- le, es|
w: * ben grös- ser|freud, alls|wann ich gnug-|* sam klag mein|Leid, Gott|geb wen es thu|ir- ren, mich|
 c3 B A2 A2 | ^G2 A4 G2 | A8 :| %60
w: trau- re wer da|wöl- * *|le.|
w: thut es nicht ver-|wir- * *|ren.|
V:2
"^2)""^1)" z4 c4- | c4 d4 | e8 | c4 d4 | e2 f2 g4- | g4 f4 | e4 e4 | ^f6 ef | g4 G4- | G4 c4 | %10
w: Ob-|* schon|A-|mor übt|sei- * *|* ne|tück, gegn|mir _ _|_ und|_ lest|
w: Man-|* cher|be-|weint die|pein _ _|_ und|schmertz, so|ihm _ _|_ be-|* ses-|
 A4 d4- | d4 c4- | c4 B4- | B4 A4- |"^#" A2 ^GF G4 |"^-natural" A4 c4 | B6 A2 | A2 d2 ^c4 | d8 | %19
w: mich gar|_ _||* kein|_ _ _ _|glûck, kein|lust noch|freud er- le-|ben,|
w: sen hat|_ _||* sein|_ _ _ _|hertz, ohn|un- ter|lasz thut pla-|gen,|
 z4 c4- | c4 d4 | e8 | c4 d4 | e2 f2 g4- | g4 f4 | e4 e4 | ^f6 ef | g4 G4- | G4 c4 | A4 d4- | %30
w: so|_ freut|mich|doch im|Her- * *|* zen|mein, dasz|die _ _|_ lieb,|_ so|mich gnom-|
w: solch|_ pein|und|schmerz be-|wein _ _|_ ich|nicht, kein|schmerz _ _|_ und|_ pein|mirs hert-|
 d4 c4- | c4 B4- | B4 A4- |"^#" A2 ^GF G4 |"^-natural" A4 c4 | B6 A2 | A2 d2 ^c4 | d8 |: %38
w: ||* men|_ _ _ _|ein, ob|sie schon|ist ver- ge-|ben,|
w: ||* ze|_ _ _ _|bricht, ich|thu mich|nivht be- kla-|gen:|
 z2 A2 B2 d2 | G2 c2 A2 d2 | ^c4 z2 f2- | f2 f4 d2 | e2 f2 g4 | a4 z2 A2 | A2 A2 A2 d2 | %45
w: den- noch war|glegt an sol- ches|ort, da|_ es mich|nicht soll reu-|en, eh|ich ab- liek, ich|
w: All trau- ren|mir ver- geht zu|hand, wenn|_ ich an|dich ge den-|cke, dasz|du die schönst bist|
 d2 ^c2 d2 e2 | f2 ed c3 A | B2 c4 B2 | c2 G2 G2 G2 | A6 G2 | FG A4 G2 | A2 E2 E2 E2 | F6 E2 | %53
w: führ eh fort, und|thätt _ _ _ die|lieb ver- neu-|en, all noth und|pein ist|mir _ _ ein|schertz, er frischt mir|nur mein|
w: inn dem Land, mich|dir _ _ _ zu|ey- gen schen-|cke, die lieb mir|bes- ser|gfal- * * ln|thut, als mein Le-|ben wers|
 DE F4 E2 | F4 z2 c2 | f3 e d2 d2 | ^c4 d2 e2 |"^-natural" e3 d c2 c2 | B2 A2 B4 | A8 :| %60
w: gmüth _ _ und|hertz, drumb|trau- ren ich ein|stel- le, es|trau- re wer da|wöl- * *|le.|
w: noch _ _ so|gut, wer|mir das nit thut|gän- nen, dem|thu all freud zer-|rin- * *|nen.|
V:3
"^3)""^1)" z4 A4- | A4 B4 | c8 | A4 B4 | c6 d2 | e2 A2 d4- | d4 ^c4 | d4 A4 | B6 AB | c4 C4 | %10
w: Ob-|* schon|A-|mor übt|sei- *||* ne|tück, gegn|mir _ _|_ und|
 D2 E2 F2 G2 | A6 G2 | ^F4 G4 | E8- | E4 E4 | A4 A4 | E3 F G2 D2 | F3 G A4 | D8 | z4 A4- | A4 B4 | %21
w: lest _ _ _|_ _|* mich|gar|_ kein|glück, kein|lust _ _ noch|freud ver- le-|ben,|so|_ freut|
 c8 | A4 B4 | c6 d2 | e2 A2 d4- | d4 ^c4 | d4 A4 | B6 AB | c4 C4 | D2 E2 F2 G2 | A6 G2 | ^F4 G4 | %32
w: mich|doch im|Her- *||* zen|mein, dasz|die _ _|_ lieb|so _ _ _|_ _|* mich|
 E8- | E4 E4 | A4 A4 | E3 F G2 D2 | F3 G A4 | D8 |: z2 ^F2 G2 B2 | c2 E2 F2 D2 | A4 F2 F2 | %41
w: gnom-|* men|ein, ob|sie _ _ schon|ist ver- ge-|ben,|den- noch war|glegt an sol- ches|ort, da es|
 F2 A4 _B2 | c4 C4 | F4 z2 F2 |"^b" F2 F2 F2 B2 | G2 A2 D2 C2 | F2 G2 A2 A2 |"^-natural" G8 | %48
w: mich nicht soll|reu- *|en, eh|ich ab- liek, ich|führ eh fort, und|thätt die lieb ver-|neu-|
 C4 z2 c2 | c2 c2 d4- | d2 c2 _B2 B2 | A4 z2 A2 |"^-natural" A2 A2 _B4- | B2 A2 G2 G2 | F4 z2 F2 | %55
w: en, all|noth und pein|_ ist mir ein|schertz, er-|frischt mir nur|_ mein gmüth und|hertz, drumb|
 D3 E F2 D2 | A4 D2 A2 | A3 B c2 A2 | E8 | A8 :| %60
w: trau- ren ich ein|stel- le, es|trau- re wer da|wöl-|le.|

